svg/aws-ec2-x2idn.svg

<?xml version="1.0" encoding="UTF-8"?>
<svg xmlns="http://www.w3.org/2000/svg" xmlns:xlink="http://www.w3.org/1999/xlink" width="32" height="32" viewBox="0 0 32 32">
<path fill-rule="evenodd" fill="rgb(83.137255%, 35.686275%, 2.745098%)" fill-opacity="1" d="M 6 26 L 26 26 L 26 6 L 6 6 Z M 27.332031 8.667969 L 27.332031 11.332031 L 30.667969 11.332031 L 30.667969 12.667969 L 27.332031 12.667969 L 27.332031 15.332031 L 30.667969 15.332031 L 30.667969 16.667969 L 27.332031 16.667969 L 27.332031 19.332031 L 30.667969 19.332031 L 30.667969 20.667969 L 27.332031 20.667969 L 27.332031 23.332031 L 30.667969 23.332031 L 30.667969 24.667969 L 27.332031 24.667969 L 27.332031 26.667969 C 27.332031 27.035156 27.035156 27.332031 26.667969 27.332031 L 24.667969 27.332031 L 24.667969 30.667969 L 23.332031 30.667969 L 23.332031 27.332031 L 20.667969 27.332031 L 20.667969 30.667969 L 19.332031 30.667969 L 19.332031 27.332031 L 16.667969 27.332031 L 16.667969 30.667969 L 15.332031 30.667969 L 15.332031 27.332031 L 12.667969 27.332031 L 12.667969 30.667969 L 11.332031 30.667969 L 11.332031 27.332031 L 8.667969 27.332031 L 8.667969 30.667969 L 7.332031 30.667969 L 7.332031 27.332031 L 5.332031 27.332031 C 4.964844 27.332031 4.667969 27.035156 4.667969 26.667969 L 4.667969 24.667969 L 1.332031 24.667969 L 1.332031 23.332031 L 4.667969 23.332031 L 4.667969 20.667969 L 1.332031 20.667969 L 1.332031 19.332031 L 4.667969 19.332031 L 4.667969 16.667969 L 1.332031 16.667969 L 1.332031 15.332031 L 4.667969 15.332031 L 4.667969 12.667969 L 1.332031 12.667969 L 1.332031 11.332031 L 4.667969 11.332031 L 4.667969 8.667969 L 1.332031 8.667969 L 1.332031 7.332031 L 4.667969 7.332031 L 4.667969 5.332031 C 4.667969 4.964844 4.964844 4.667969 5.332031 4.667969 L 7.332031 4.667969 L 7.332031 1.332031 L 8.667969 1.332031 L 8.667969 4.667969 L 11.332031 4.667969 L 11.332031 1.332031 L 12.667969 1.332031 L 12.667969 4.667969 L 15.332031 4.667969 L 15.332031 1.332031 L 16.667969 1.332031 L 16.667969 4.667969 L 19.332031 4.667969 L 19.332031 1.332031 L 20.667969 1.332031 L 20.667969 4.667969 L 23.332031 4.667969 L 23.332031 1.332031 L 24.667969 1.332031 L 24.667969 4.667969 L 26.667969 4.667969 C 27.035156 4.667969 27.332031 4.964844 27.332031 5.332031 L 27.332031 7.332031 L 30.667969 7.332031 L 30.667969 8.667969 Z M 21.269531 15.496094 C 21.546875 15.320312 21.816406 15.234375 22.082031 15.234375 C 22.257812 15.234375 22.386719 15.277344 22.464844 15.367188 C 22.546875 15.457031 22.585938 15.601562 22.585938 15.796875 L 22.585938 17.820312 L 23.292969 17.820312 L 23.292969 15.574219 C 23.292969 15.28125 23.21875 15.058594 23.066406 14.90625 C 22.914062 14.75 22.691406 14.675781 22.398438 14.675781 C 21.992188 14.675781 21.601562 14.816406 21.222656 15.101562 L 21.152344 14.765625 L 20.5625 14.765625 L 20.5625 17.820312 L 21.269531 17.820312 Z M 17.652344 16.269531 C 17.652344 16.972656 17.910156 17.328125 18.421875 17.328125 C 18.65625 17.328125 18.886719 17.25 19.113281 17.097656 L 19.113281 15.449219 C 18.914062 15.308594 18.675781 15.234375 18.433594 15.234375 C 18.164062 15.234375 17.96875 15.316406 17.84375 15.488281 C 17.714844 15.65625 17.652344 15.917969 17.652344 16.269531 M 17.277344 17.457031 C 17.046875 17.167969 16.933594 16.785156 16.933594 16.300781 C 16.933594 15.980469 16.984375 15.699219 17.089844 15.453125 C 17.183594 15.222656 17.339844 15.027344 17.539062 14.882812 C 17.742188 14.742188 17.988281 14.667969 18.234375 14.675781 C 18.554688 14.675781 18.847656 14.777344 19.113281 14.984375 L 19.113281 13.378906 L 19.820312 13.378906 L 19.820312 17.820312 L 19.214844 17.820312 L 19.140625 17.523438 C 18.871094 17.765625 18.554688 17.882812 18.199219 17.882812 C 17.839844 17.898438 17.496094 17.742188 17.277344 17.457031 M 15.96875 14.261719 C 16.097656 14.261719 16.203125 14.222656 16.28125 14.152344 C 16.359375 14.074219 16.402344 13.964844 16.394531 13.851562 C 16.402344 13.742188 16.359375 13.632812 16.28125 13.550781 C 16.195312 13.476562 16.082031 13.441406 15.96875 13.445312 C 15.855469 13.4375 15.742188 13.476562 15.65625 13.550781 C 15.578125 13.632812 15.539062 13.742188 15.542969 13.851562 C 15.542969 13.984375 15.582031 14.085938 15.65625 14.152344 C 15.730469 14.222656 15.835938 14.261719 15.96875 14.261719 M 15.613281 17.820312 L 16.320312 17.820312 L 16.320312 14.765625 L 15.613281 14.765625 Z M 14.953125 17.25 L 12.859375 17.25 C 13.339844 16.8125 13.714844 16.449219 13.988281 16.152344 C 14.261719 15.859375 14.460938 15.597656 14.582031 15.367188 C 14.703125 15.160156 14.765625 14.925781 14.765625 14.6875 C 14.773438 14.476562 14.71875 14.265625 14.609375 14.085938 C 14.503906 13.917969 14.351562 13.785156 14.171875 13.699219 C 13.964844 13.605469 13.742188 13.5625 13.511719 13.566406 C 13.050781 13.566406 12.628906 13.71875 12.246094 14.03125 L 12.246094 14.621094 C 12.457031 14.476562 12.660156 14.367188 12.863281 14.289062 C 13.066406 14.210938 13.253906 14.171875 13.421875 14.171875 C 13.621094 14.171875 13.769531 14.222656 13.878906 14.324219 C 13.988281 14.425781 14.042969 14.570312 14.042969 14.753906 C 14.042969 14.910156 13.992188 15.078125 13.890625 15.261719 C 13.792969 15.445312 13.613281 15.6875 13.351562 15.988281 C 13.089844 16.289062 12.683594 16.71875 12.132812 17.277344 L 12.132812 17.820312 L 14.953125 17.820312 Z M 8.234375 17.820312 L 9.625 15.664062 L 8.328125 13.660156 L 9.0625 13.660156 L 10.050781 15.136719 L 11.015625 13.660156 L 11.75 13.660156 L 10.449219 15.652344 L 11.84375 17.820312 L 11.113281 17.820312 L 10.019531 16.175781 L 8.964844 17.820312 Z M 8.234375 17.820312 "/>
</svg>

<svg role="img" viewBox="0 0 32 32" xmlns="http://www.w3.org/2000/svg"><path d="M6 26h20V6H6ZM27.332 8.668v2.664h3.336v1.336h-3.336v2.664h3.336v1.336h-3.336v2.664h3.336v1.336h-3.336v2.664h3.336v1.336h-3.336v2a.664.664 0 0 1-.664.664h-2v3.336h-1.336v-3.336h-2.664v3.336h-1.336v-3.336h-2.664v3.336h-1.336v-3.336h-2.664v3.336h-1.336v-3.336H8.668v3.336H7.332v-3.336h-2a.664.664 0 0 1-.664-.664v-2H1.332v-1.336h3.336v-2.664H1.332v-1.336h3.336v-2.664H1.332v-1.336h3.336v-2.664H1.332v-1.336h3.336V8.668H1.332V7.332h3.336v-2c0-.367.297-.664.664-.664h2V1.332h1.336v3.336h2.664V1.332h1.336v3.336h2.664V1.332h1.336v3.336h2.664V1.332h1.336v3.336h2.664V1.332h1.336v3.336h2c.367 0 .664.297.664.664v2h3.336v1.336Zm-6.062 6.828q.414-.263.812-.262.265-.001.383.133.122.136.12.43v2.023h.708v-2.246q.001-.439-.227-.668c-.152-.156-.375-.23-.668-.23q-.61-.002-1.175.426l-.07-.336h-.59v3.054h.707Zm-3.618.774q.001 1.056.77 1.058.352-.001.691-.23v-1.649a1.16 1.16 0 0 0-.68-.215q-.402-.002-.59.254-.191.253-.19.782m-.375 1.187q-.344-.432-.343-1.156-.002-.48.156-.848a1.3 1.3 0 0 1 .45-.57 1.16 1.16 0 0 1 .694-.207q.48-.001.88.308V13.38h.706v4.441h-.605l-.074-.297c-.27.243-.586.36-.942.36q-.575.002-.922-.426m-1.308-3.195c.129 0 .234-.04.312-.11a.4.4 0 0 0 .114-.3.4.4 0 0 0-.114-.301.45.45 0 0 0-.312-.106.44.44 0 0 0-.313.106q-.115.11-.113.3-.002.196.113.301c.074.07.18.11.313.11m-.356 3.558h.707v-3.054h-.707Zm-.66-.57H12.86c.48-.437.856-.8 1.13-1.098q.41-.439.593-.785.186-.345.184-.68.001-.35-.157-.601a1.05 1.05 0 0 0-.437-.387 1.5 1.5 0 0 0-.66-.133q-.692-.002-1.266.465v.59c.211-.144.414-.254.617-.332q.303-.117.559-.117c.2 0 .348.05.457.152q.164.153.164.43 0 .23-.152.508-.147.275-.54.726-.391.45-1.218 1.29v.542h2.82Zm-6.719.57 1.391-2.156-1.297-2.004h.735l.988 1.477.965-1.477h.734l-1.3 1.992 1.394 2.168h-.73l-1.094-1.644-1.055 1.644Zm0 0" fill="rgb(83.137256%, 35.686275%, 2.745098%)" fill-rule="evenodd"/></svg>
